the-boy.svg

<svg width="96" height="128" viewBox="0 0 6 8" xmlns="http://www.w3.org/2000/svg"><path d="m3 0 1 1-2 2 1 1 1-1-2-2m-1 3 1 1-1 1-1-1m5-1 1 1-1 1-1-1m-1 1 1 1-1 1-1-1"/></svg>

<svg viewBox="0 0 6 8" xmlns="http://www.w3.org/2000/svg"><path d="M3 0L4 1 2 3 3 4 4 3 2 1M1 4L2 5 1 6 0 5M5 4L6 5 5 6 4 5M3 6L4 7 3 8 2 7"/></svg>
